images/Facebook.svg

<?xml version="1.0" encoding="UTF-8" standalone="no"?>
<!-- Created with Inkscape (http://www.inkscape.org/) -->

<svg
   xmlns:dc="http://purl.org/dc/elements/1.1/"
   xmlns:cc="http://creativecommons.org/ns#"
   xmlns:rdf="http://www.w3.org/1999/02/22-rdf-syntax-ns#"
   xmlns:svg="http://www.w3.org/2000/svg"
   xmlns="http://www.w3.org/2000/svg"
   version="1.1"
   width="50"
   height="50"
   id="svg2">
  <defs
     id="defs4">
    <clipPath
       id="clipPath3033">
      <path
         d="M 0,792 612,792 612,0 0,0 0,792 z"
         id="path3035" />
    </clipPath>
    <clipPath
       id="clipPath3833">
      <rect
         width="13.889598"
         height="25.885159"
         x="22.602163"
         y="1014.8603"
         id="rect3835"
         style="fill:#303030;fill-opacity:1" />
    </clipPath>
    <clipPath
       id="clipPath3992">
      <rect
         width="56.481354"
         height="111.7296"
         x="-359.02158"
         y="-447.10541"
         transform="scale(-1,-1)"
         id="rect3994"
         style="fill:#3f3f3f;fill-opacity:1" />
    </clipPath>
  </defs>
  <metadata
     id="metadata7">
    <rdf:RDF>
      <cc:Work
         rdf:about="">
        <dc:format>image/svg+xml</dc:format>
        <dc:type
           rdf:resource="http://purl.org/dc/dcmitype/StillImage" />
        <dc:title></dc:title>
      </cc:Work>
    </rdf:RDF>
  </metadata>
  <g
     transform="translate(0,-1002.3622)"
     id="layer1">
    <path
       d="M 25,0 C 11.192881,0 0,11.192881 0,25 0,38.807119 11.192881,50 25,50 38.807119,50 50,38.807119 50,25 50,11.192881 38.807119,0 25,0 z m 4.75,6.1875 c 1.732569,0.00505 3.730448,0.1366983 3.84375,0.25 0.02447,0.024469 0.0083,1.3220738 -0.03125,2.90625 L 33.5,12.25 l -2.1875,0 c -3.058147,0.0029 -3.691342,0.16109 -4.15625,1.03125 -0.219399,0.410649 -0.220376,0.539014 -0.25,3.375 l -0.03125,2.9375 3.375,0 3.375,0 -0.03125,0.8125 c -0.0056,0.456869 -0.06137,1.882556 -0.125,3.15625 l -0.09375,2.3125 -3.25,0.03125 -3.25,0.03125 0,8.71875 0,8.6875 -3.3125,0 c -1.818244,0 -3.335691,-0.02319 -3.375,-0.0625 -0.03931,-0.03931 -0.03898,-3.967863 0,-8.71875 l 0.0625,-8.625 -2.3125,0 -2.34375,0 0,-3.1875 0,-3.15625 2.3125,0 2.3125,0 0.03125,-3.5625 C 20.28548,12.779303 20.30771,12.425809 20.5,11.8125 21.284947,9.3088358 22.900047,7.6187083 25.34375,6.75 26.593443,6.3057472 27.638487,6.1813522 29.75,6.1875 z"
       transform="translate(0,1002.3622)"
       id="path2985"
       style="fill:#3f3f3f;fill-opacity:1;stroke-width:0;stroke-miterlimit:4;stroke-dasharray:none" />
  </g>
  <g
     id="layer2">
    <path
       d=""
       id="path3062"
       style="fill:#000000" />
    <path
       d="m 20.273088,34.843738 0,-8.649431 -2.272844,0 -2.272843,0 0,-3.030458 0,-3.030458 2.256148,0 2.256148,0 0.06741,-3.377697 c 0.07489,-3.752393 0.151085,-4.227844 0.93586,-5.839945 0.876932,-1.8014115 2.609606,-3.1476783 4.907319,-3.8129263 0.92779,-0.2686196 1.238026,-0.2904997 4.064344,-0.2866477 2.071531,0.00282 3.105228,0.049517 3.200273,0.1445623 0.100177,0.100177 0.11403,0.9373557 0.04836,2.9226295 l -0.09203,2.7822372 -2.603167,0.04052 c -3.96255,0.06168 -3.928992,0.02303 -3.928992,4.52563 l 0,2.901633 3.363852,0 3.363854,0 -0.08217,1.799335 c -0.04519,0.989633 -0.117308,2.353339 -0.160258,3.030457 l -0.07809,1.231124 -3.203595,0 -3.203596,0 0,8.649431 0,8.649431 -3.282996,0 -3.282995,0 0,-8.649431 z"
       id="path3838"
       style="fill:#333333;fill-opacity:0" />
    <path
       d="m 20.273088,34.843738 0,-8.649431 -2.272844,0 -2.272843,0 0,-3.030458 0,-3.030458 2.256148,0 2.256148,0 0.06741,-3.377697 c 0.07489,-3.752393 0.151085,-4.227844 0.93586,-5.839945 0.876932,-1.8014115 2.609606,-3.1476783 4.907319,-3.8129263 0.92779,-0.2686196 1.238026,-0.2904997 4.064344,-0.2866477 2.071531,0.00282 3.105228,0.049517 3.200273,0.1445623 0.100177,0.100177 0.11403,0.9373557 0.04836,2.9226295 l -0.09203,2.7822372 -2.603167,0.04052 c -3.96255,0.06168 -3.928992,0.02303 -3.928992,4.52563 l 0,2.901633 3.363852,0 3.363854,0 -0.08217,1.799335 c -0.04519,0.989633 -0.117308,2.353339 -0.160258,3.030457 l -0.07809,1.231124 -3.203595,0 -3.203596,0 0,8.649431 0,8.649431 -3.282996,0 -3.282995,0 0,-8.649431 z"
       id="path3840"
       style="fill:#333333;fill-opacity:0" />
  </g>
</svg>

<?xml version="1.0" encoding="UTF-8" standalone="no"?>
<!-- Created with Inkscape (http://www.inkscape.org/) -->

<svg
   xmlns:dc="http://purl.org/dc/elements/1.1/"
   xmlns:cc="http://creativecommons.org/ns#"
   xmlns:rdf="http://www.w3.org/1999/02/22-rdf-syntax-ns#"
   xmlns:svg="http://www.w3.org/2000/svg"
   xmlns="http://www.w3.org/2000/svg"
   xmlns:sodipodi="http://sodipodi.sourceforge.net/DTD/sodipodi-0.dtd"
   xmlns:inkscape="http://www.inkscape.org/namespaces/inkscape"
   width="50"
   height="50"
   id="svg2"
   version="1.1"
   inkscape:version="0.48.2 r9819"
   sodipodi:docname="facebook-icon-light.svg"
   inkscape:export-filename="/Users/ScottSmith/Desktop/facebook-icon.png"
   inkscape:export-xdpi="900"
   inkscape:export-ydpi="900">
  <defs
     id="defs4">
    <clipPath
       id="clipPath3033"
       clipPathUnits="userSpaceOnUse">
      <path
         id="path3035"
         d="M 0,792 612,792 612,0 0,0 0,792 z" />
    </clipPath>
    <clipPath
       clipPathUnits="userSpaceOnUse"
       id="clipPath3833">
      <rect
         style="fill:#303030;fill-opacity:1"
         id="rect3835"
         width="13.889598"
         height="25.885159"
         x="22.602163"
         y="1014.8603" />
    </clipPath>
    <clipPath
       clipPathUnits="userSpaceOnUse"
       id="clipPath3992">
      <rect
         style="fill:#3f3f3f;fill-opacity:1"
         id="rect3994"
         width="56.481354"
         height="111.7296"
         x="-359.02158"
         y="-447.10541"
         mask="none"
         transform="scale(-1,-1)" />
    </clipPath>
  </defs>
  <sodipodi:namedview
     id="base"
     pagecolor="#ffffff"
     bordercolor="#666666"
     borderopacity="1.0"
     inkscape:pageopacity="0.0"
     inkscape:pageshadow="2"
     inkscape:zoom="7.9195959"
     inkscape:cx="17.608839"
     inkscape:cy="24.803493"
     inkscape:document-units="px"
     inkscape:current-layer="layer1"
     showgrid="false"
     inkscape:window-width="966"
     inkscape:window-height="628"
     inkscape:window-x="82"
     inkscape:window-y="0"
     inkscape:window-maximized="0" />
  <metadata
     id="metadata7">
    <rdf:RDF>
      <cc:Work
         rdf:about="">
        <dc:format>image/svg+xml</dc:format>
        <dc:type
           rdf:resource="http://purl.org/dc/dcmitype/StillImage" />
        <dc:title />
      </cc:Work>
    </rdf:RDF>
  </metadata>
  <g
     inkscape:label="Layer 1"
     inkscape:groupmode="layer"
     id="layer1"
     transform="translate(0,-1002.3622)">
    <path
       style="fill:#808080;fill-opacity:1;stroke-width:0;stroke-miterlimit:4;stroke-dasharray:none"
       d="M 25 0 C 11.192881 1.1842379e-14 7.7666216e-17 11.192881 0 25 C 2.3684758e-15 38.807119 11.192881 50 25 50 C 38.807119 50 50 38.807119 50 25 C 50 11.192881 38.807119 -3.4750475e-15 25 0 z M 29.75 6.1875 C 31.482569 6.19255 33.480448 6.3241983 33.59375 6.4375 C 33.61822 6.461969 33.60203 7.7595738 33.5625 9.34375 L 33.5 12.25 L 31.3125 12.25 C 28.254353 12.2529 27.621158 12.41109 27.15625 13.28125 C 26.936851 13.691899 26.935874 13.820264 26.90625 16.65625 L 26.875 19.59375 L 30.25 19.59375 L 33.625 19.59375 L 33.59375 20.40625 C 33.58815 20.863119 33.532385 22.288806 33.46875 23.5625 L 33.375 25.875 L 30.125 25.90625 L 26.875 25.9375 L 26.875 34.65625 L 26.875 43.34375 L 23.5625 43.34375 C 21.744256 43.34375 20.226809 43.32056 20.1875 43.28125 C 20.14819 43.24194 20.148524 39.313387 20.1875 34.5625 L 20.25 25.9375 L 17.9375 25.9375 L 15.59375 25.9375 L 15.59375 22.75 L 15.59375 19.59375 L 17.90625 19.59375 L 20.21875 19.59375 L 20.25 16.03125 C 20.28548 12.779303 20.30771 12.425809 20.5 11.8125 C 21.284947 9.3088358 22.900047 7.6187083 25.34375 6.75 C 26.593443 6.3057472 27.638487 6.1813522 29.75 6.1875 z "
       id="path2985"
       transform="translate(0,1002.3622)" />
  </g>
  <g
     inkscape:groupmode="layer"
     id="layer2"
     inkscape:label="FB">
    <path
       style="fill:#000000"
       d=""
       id="path3062"
       inkscape:connector-curvature="0" />
    <path
       style="fill:#333333;fill-opacity:0"
       d="m 20.273088,34.843738 0,-8.649431 -2.272844,0 -2.272843,0 0,-3.030458 0,-3.030458 2.256148,0 2.256148,0 0.06741,-3.377697 c 0.07489,-3.752393 0.151085,-4.227844 0.93586,-5.839945 0.876932,-1.8014115 2.609606,-3.1476783 4.907319,-3.8129263 0.92779,-0.2686196 1.238026,-0.2904997 4.064344,-0.2866477 2.071531,0.00282 3.105228,0.049517 3.200273,0.1445623 0.100177,0.100177 0.11403,0.9373557 0.04836,2.9226295 l -0.09203,2.7822372 -2.603167,0.04052 c -3.96255,0.06168 -3.928992,0.02303 -3.928992,4.52563 l 0,2.901633 3.363852,0 3.363854,0 -0.08217,1.799335 c -0.04519,0.989633 -0.117308,2.353339 -0.160258,3.030457 l -0.07809,1.231124 -3.203595,0 -3.203596,0 0,8.649431 0,8.649431 -3.282996,0 -3.282995,0 0,-8.649431 z"
       id="path3838"
       inkscape:connector-curvature="0" />
    <path
       style="fill:#333333;fill-opacity:0"
       d="m 20.273088,34.843738 0,-8.649431 -2.272844,0 -2.272843,0 0,-3.030458 0,-3.030458 2.256148,0 2.256148,0 0.06741,-3.377697 c 0.07489,-3.752393 0.151085,-4.227844 0.93586,-5.839945 0.876932,-1.8014115 2.609606,-3.1476783 4.907319,-3.8129263 0.92779,-0.2686196 1.238026,-0.2904997 4.064344,-0.2866477 2.071531,0.00282 3.105228,0.049517 3.200273,0.1445623 0.100177,0.100177 0.11403,0.9373557 0.04836,2.9226295 l -0.09203,2.7822372 -2.603167,0.04052 c -3.96255,0.06168 -3.928992,0.02303 -3.928992,4.52563 l 0,2.901633 3.363852,0 3.363854,0 -0.08217,1.799335 c -0.04519,0.989633 -0.117308,2.353339 -0.160258,3.030457 l -0.07809,1.231124 -3.203595,0 -3.203596,0 0,8.649431 0,8.649431 -3.282996,0 -3.282995,0 0,-8.649431 z"
       id="path3840"
       inkscape:connector-curvature="0" />
  </g>
</svg>
